communes/3713.svg

<?xml version="1.0" encoding="UTF-8" standalone="no"?>
<!-- Created with Inkscape (http://www.inkscape.org/) -->

<svg
   xmlns:dc="http://purl.org/dc/elements/1.1/"
   xmlns:cc="http://creativecommons.org/ns#"
   xmlns:rdf="http://www.w3.org/1999/02/22-rdf-syntax-ns#"
   xmlns:svg="http://www.w3.org/2000/svg"
   xmlns="http://www.w3.org/2000/svg"
   xmlns:sodipodi="http://sodipodi.sourceforge.net/DTD/sodipodi-0.dtd"
   xmlns:inkscape="http://www.inkscape.org/namespaces/inkscape"
   version="1.0"
   width="208.86046"
   height="244.65999"
   id="svg2780"
   inkscape:version="0.92.4 (5da689c313, 2019-01-14)"
   sodipodi:docname="Ferrera-blazon.svg">
  <metadata
     id="metadata27">
    <rdf:RDF>
      <cc:Work
         rdf:about="">
        <dc:format>image/svg+xml</dc:format>
        <dc:type
           rdf:resource="http://purl.org/dc/dcmitype/StillImage" />
        <dc:title></dc:title>
      </cc:Work>
    </rdf:RDF>
  </metadata>
  <sodipodi:namedview
     pagecolor="#ffffff"
     bordercolor="#666666"
     borderopacity="1"
     objecttolerance="10"
     gridtolerance="10"
     guidetolerance="10"
     inkscape:pageopacity="0"
     inkscape:pageshadow="2"
     inkscape:window-width="1627"
     inkscape:window-height="1408"
     id="namedview25"
     showgrid="false"
     inkscape:zoom="1.4142136"
     inkscape:cx="-63.575978"
     inkscape:cy="-12.939374"
     inkscape:window-x="-7"
     inkscape:window-y="0"
     inkscape:window-maximized="0"
     inkscape:current-layer="svg2780"
     inkscape:measure-start="104.255,149.787"
     inkscape:measure-end="104.255,126.383"
     showguides="true"
     inkscape:object-paths="true"
     inkscape:snap-intersection-paths="true"
     inkscape:snap-global="true"
     inkscape:snap-object-midpoints="true" />
  <defs
     id="defs2782" />
  <path
     inkscape:connector-curvature="0"
     style="fill:#000000;fill-opacity:1;fill-rule:evenodd;stroke:#000000;stroke-width:1.99999988;stroke-linecap:butt;stroke-miterlimit:4;stroke-dashoffset:0;stroke-opacity:1;stroke-dasharray:none"
     id="path4212"
     d="m 1,1 3.761095,158.00304 c 2.686489,112.85918 196.651755,112.85918 199.338255,0 L 207.86045,1 Z" />
  <path
     style="opacity:1;fill:#ffffff;fill-opacity:1;stroke:none;stroke-width:1;stroke-miterlimit:9;stroke-dasharray:none;stroke-dashoffset:4.57999992;stroke-opacity:1"
     d="M 1.0000014,1 185.21623,210.25722 c 11.29601,-13.46541 17.7071,-29.32433 18.74056,-47.81815 L 207.86045,1 Z"
     id="path1047"
     inkscape:connector-curvature="0"
     sodipodi:nodetypes="ccccc" />
  <path
     style="opacity:1;fill:#000000;fill-opacity:1;stroke:#ffffff;stroke-width:1;stroke-miterlimit:9;stroke-dasharray:none;stroke-dashoffset:4.57999992;stroke-opacity:1"
     d="M 50.515149,57.245865 C 69.289817,40.717888 96.176952,17.669228 113.3853,12.185139 l 11.56048,8.390327 C 103.98687,31.663203 88.042729,50.22356 73.263148,65.38369 L 84.80896,80.961871 184.91407,199.12011 c -0.97175,2.011 -2.3884,3.68468 -4.56873,5.6041"
     id="path896-4"
     inkscape:connector-curvature="0"
     sodipodi:nodetypes="ccccccc" />
  <path
     style="opacity:1;fill:none;fill-opacity:1;stroke:#ffffff;stroke-width:1;stroke-miterlimit:9;stroke-dasharray:none;stroke-dashoffset:4.57999992;stroke-opacity:1"
     d="M 58.212296,65.989306 C 80.819735,46.087211 106.28043,22.143386 124.67366,20.404664"
     id="path898-3"
     inkscape:connector-curvature="0"
     sodipodi:nodetypes="cc" />
  <path
     style="opacity:1;fill:#ffffff;fill-opacity:1;stroke:#000000;stroke-width:1;stroke-miterlimit:9;stroke-dasharray:none;stroke-dashoffset:4.57999992;stroke-opacity:1"
     d="M 50.515149,57.245865 C 40.49182,66.069741 10.931674,96.167234 8.3009778,121.71844 24.577538,105.26985 39.332532,95.051842 56.244144,82.313555 L 68.76565,94.919218 174.20748,208.5459 c 2.11796,-0.70898 3.95773,-1.90203 6.13806,-3.82145"
     id="path896-8-82"
     inkscape:connector-curvature="0"
     sodipodi:nodetypes="cccccc" />
  <path
     style="opacity:1;fill:none;fill-opacity:1;stroke:#000000;stroke-width:1;stroke-miterlimit:9;stroke-dasharray:none;stroke-dashoffset:4.57999992;stroke-opacity:1"
     d="M 58.212296,65.989306 C 35.604854,85.891404 16.161951,105.47153 8.3009778,121.71844"
     id="path898-4-9"
     inkscape:connector-curvature="0"
     sodipodi:nodetypes="cc" />
  <path
     style="opacity:1;fill:none;fill-opacity:1;stroke:#000000;stroke-width:1;stroke-miterlimit:9;stroke-dasharray:none;stroke-dashoffset:4.57999992;stroke-opacity:1"
     d="m 55.771541,63.216772 c -3.865807,3.403201 -7.666447,5.404623 -8.488978,4.470294 -0.82252,-0.934338 1.644556,-4.450599 5.510363,-7.8538"
     id="path918-1"
     inkscape:connector-curvature="0"
     sodipodi:nodetypes="ccc" />
  <path
     inkscape:connector-curvature="0"
     style="opacity:1;fill:none;fill-opacity:1;stroke:#ffffff;stroke-width:1;stroke-miterlimit:9;stroke-dasharray:none;stroke-dashoffset:4.57999992;stroke-opacity:1"
     d="m 52.792926,59.833266 c 3.865804,-3.403199 7.666446,-5.404608 8.488972,-4.470289 0.822511,0.934333 -1.644553,4.450596 -5.510357,7.853795"
     id="path918-3-35"
     sodipodi:nodetypes="ccc" />
  <path
     style="opacity:1;fill:none;fill-opacity:1;stroke:#ffffff;stroke-width:1;stroke-miterlimit:9;stroke-dasharray:none;stroke-dashoffset:4.57999992;stroke-opacity:1"
     d="m 84.80896,80.961871 c -1.329024,1.889553 -3.492956,5.115031 -6.54645,7.803126"
     id="path1045" />
  <path
     style="opacity:1;fill:none;fill-opacity:1;stroke:#000000;stroke-width:1;stroke-miterlimit:9;stroke-dasharray:none;stroke-dashoffset:4.57999992;stroke-opacity:1"
     d="m 78.26251,88.764997 c -2.990828,2.632927 -7.00525,4.867994 -9.48836,6.163365"
     id="path936-2" />
  <path
     inkscape:connector-curvature="0"
     style="fill:none;fill-opacity:1;fill-rule:evenodd;stroke:#000000;stroke-width:1.99999988;stroke-linecap:butt;stroke-miterlimit:4;stroke-dasharray:none;stroke-dashoffset:0;stroke-opacity:1"
     id="path4212-3"
     d="M 1,0.99999834 4.761095,159.00304 c 2.686489,112.85918 196.651755,112.85918 199.338255,0 l 3.7611,-158.00304166 z" />
</svg>

<?xml version="1.0" encoding="UTF-8"?>
<svg version="1.0" viewBox="0 0 208.86 244.66" xmlns="http://www.w3.org/2000/svg" xmlns:cc="http://creativecommons.org/ns#" xmlns:dc="http://purl.org/dc/elements/1.1/" xmlns:rdf="http://www.w3.org/1999/02/22-rdf-syntax-ns#">
<metadata>
<rdf:RDF>
<cc:Work rdf:about="">
<dc:format>image/svg+xml</dc:format>
<dc:type rdf:resource="http://purl.org/dc/dcmitype/StillImage"/>
<dc:title/>
</cc:Work>
</rdf:RDF>
</metadata>
<path d="m1 1 3.7611 158c2.6865 112.86 196.65 112.86 199.34 0l3.7611-158z" fill-rule="evenodd" stroke="#000" stroke-width="2"/>
<path d="m1 1 184.22 209.26c11.296-13.465 17.707-29.324 18.741-47.818l3.9037-161.44z" fill="#fff"/>
<path d="m50.515 57.246c18.775-16.528 45.662-39.577 62.87-45.061l11.56 8.3903c-20.959 11.088-36.903 29.648-51.683 44.808l11.546 15.578 100.11 118.16c-0.97175 2.011-2.3884 3.6847-4.5687 5.6041" stroke="#fff" stroke-dashoffset="4.58" stroke-miterlimit="9"/>
<path d="m58.212 65.989c22.607-19.902 48.068-43.846 66.461-45.585" fill="none" stroke="#fff" stroke-dashoffset="4.58" stroke-miterlimit="9"/>
<path d="m50.515 57.246c-10.023 8.8239-39.583 38.921-42.214 64.473 16.277-16.449 31.032-26.667 47.943-39.405l12.522 12.606 105.44 113.63c2.118-0.70898 3.9577-1.902 6.1381-3.8214" fill="#fff" stroke="#000" stroke-dashoffset="4.58" stroke-miterlimit="9"/>
<path d="m58.212 65.989c-22.607 19.902-42.05 39.482-49.911 55.729" fill="none" stroke="#000" stroke-dashoffset="4.58" stroke-miterlimit="9"/>
<path d="m55.772 63.217c-3.8658 3.4032-7.6664 5.4046-8.489 4.4703-0.82252-0.93434 1.6446-4.4506 5.5104-7.8538" fill="none" stroke="#000" stroke-dashoffset="4.58" stroke-miterlimit="9"/>
<path d="m52.793 59.833c3.8658-3.4032 7.6664-5.4046 8.489-4.4703 0.82251 0.93433-1.6446 4.4506-5.5104 7.8538" fill="none" stroke="#fff" stroke-dashoffset="4.58" stroke-miterlimit="9"/>
<path d="m84.809 80.962c-1.329 1.8896-3.493 5.115-6.5464 7.8031" fill="none" stroke="#fff" stroke-dashoffset="4.58" stroke-miterlimit="9"/>
<path d="m78.263 88.765c-2.9908 2.6329-7.0052 4.868-9.4884 6.1634" fill="none" stroke="#000" stroke-dashoffset="4.58" stroke-miterlimit="9"/>
<path d="m1 1 3.7611 158c2.6865 112.86 196.65 112.86 199.34 0l3.7611-158z" fill="none" stroke="#000" stroke-width="2"/>
</svg>
